X:198
T: Habenichts will freien
N: A0236
O: Europa, Mitteleuropa, Deutschland
N: Reutterliedlein 1535 No. 6.
R: Romanze, Ballade, Lied
M: 4/2
L: 1/2
K: G
G | GABc | d2A2
c2 | cB2cA2 | G2z
G | GABc | d2A2
c2 | cB2cA2 | G2z
A | AGEG | G=FD
A | =FGAF | E2D2 | z3
d | dcAc | cBG
d | BcdB | A2G

